azure-patterns/svg-laptop-with-clock.svg

<svg xmlns="http://www.w3.org/2000/svg" viewBox="0 0 88 60">
                                
                            
    <path fill-rule="evenodd" clip-rule="evenodd" d="M7.65099 5.5316C7.65099 4.60841 8.39657 3.86082 9.31652 3.86082H77.799C78.7197 3.86082 79.4652 4.60841 79.4652 5.5316V46.0382C79.4652 46.9606 78.7197 47.7082 77.799 47.7082H9.31652C8.39657 47.7082 7.65099 46.9606 7.65099 46.0382V5.5316ZM3.8667 3.58801V47.8966C3.8667 49.8779 5.4691 51.4846 7.4458 51.4846H79.6689C81.6456 51.4846 83.248 49.8779 83.248 47.8966V3.58801C83.248 1.60673 81.6456 0 79.6689 0H7.4458C5.4691 0 3.8667 1.60673 3.8667 3.58801Z" fill="#1A1A1F"></path>
    <path fill-rule="evenodd" clip-rule="evenodd" d="M0.949266 55.2988H86.166C86.6898 55.2988 87.1152 55.7246 87.1152 56.2507V59.0489C87.1152 59.5741 86.6898 59.9999 86.166 59.9999H0.949266C0.425403 59.9999 0 59.5741 0 59.0489V56.2507C0 55.7246 0.425403 55.2988 0.949266 55.2988Z" fill="#1A1A1F"></path>
    <path fill-rule="evenodd" clip-rule="evenodd" d="M33.8373 56.9688H53.2773C53.4292 56.9688 53.5517 57.0923 53.5517 57.2446V58.054C53.5517 58.207 53.4292 58.3305 53.2773 58.3305H33.8373C33.6855 58.3305 33.563 58.207 33.563 58.054V57.2446C33.563 57.0923 33.6855 56.9688 33.8373 56.9688Z" fill="white"></path>
    <path d="M37.1644 24.8662H33.8687V26.3873H37.1644V24.8662Z" fill="#0078D7"></path>
    <path d="M44.6997 36.0539L44.6997 32.6313L43.2349 32.6313L43.2349 36.0539L44.6997 36.0539Z" fill="#0078D7"></path>
    <path d="M44 12C36.7981 12 31 18.0845 31 25.5C31 32.9155 36.7981 39 44 39C51.2019 39 57 32.9155 57 25.5C57 18.0845 51.2019 12 44 12ZM44 37.4155C37.6526 37.4155 32.5258 32.0915 32.5258 25.5C32.5258 18.9084 37.6526 13.5845 44 13.5845C50.3474 13.5845 55.4742 18.9084 55.4742 25.5C55.4742 32.0915 50.3474 37.4155 44 37.4155Z" fill="#0078D7"></path>
    <path d="M52.5445 25.0561L45.1596 24.7391C45.0375 24.6124 44.9154 24.4222 44.7934 24.3589L44.4882 16.6899C44.4882 16.4997 44.3051 16.3096 44.061 16.3096H43.9389C43.7558 16.3096 43.5727 16.4997 43.5117 16.6899L43.2065 24.2955C42.8403 24.549 42.5962 24.9927 42.5962 25.4997C42.5962 26.2603 43.2065 26.8941 43.9389 26.8941C44.3661 26.8941 44.7934 26.6406 45.0375 26.3237L52.4835 26.0068C52.6666 26.0068 52.8497 25.8166 52.8497 25.5631V25.4363C52.9718 25.2462 52.7887 25.0561 52.5445 25.0561Z" fill="#0078D7"></path>
</svg>

<svg xmlns="http://www.w3.org/2000/svg" viewBox="0 0 88 60"><path fill-rule="evenodd" clip-rule="evenodd" d="M7.651 5.532c0-.924.746-1.671 1.666-1.671h68.482c.92 0 1.666.747 1.666 1.67v40.507c0 .923-.745 1.67-1.666 1.67H9.317c-.92 0-1.666-.747-1.666-1.67V5.532zM3.867 3.588v44.309a3.584 3.584 0 0 0 3.579 3.588h72.223a3.584 3.584 0 0 0 3.579-3.588V3.588A3.584 3.584 0 0 0 79.668 0H7.447a3.584 3.584 0 0 0-3.58 3.588zM.95 55.299h85.216a.95.95 0 0 1 .95.952v2.798a.95.95 0 0 1-.95.95H.949A.95.95 0 0 1 0 59.05V56.25a.95.95 0 0 1 .95-.952z" fill="#1A1A1F"/><path fill-rule="evenodd" clip-rule="evenodd" d="M33.837 56.969h19.44c.152 0 .275.123.275.276v.809a.275.275 0 0 1-.275.276h-19.44a.275.275 0 0 1-.274-.276v-.81c0-.152.122-.275.274-.275z" fill="#fff"/><path d="M37.164 24.866H33.87v1.521h3.295v-1.52zM44.7 36.054V32.63h-1.465v3.423H44.7z" fill="#0078D7"/><path d="M44 12c-7.202 0-13 6.084-13 13.5S36.798 39 44 39s13-6.084 13-13.5S51.202 12 44 12zm0 25.416c-6.347 0-11.474-5.324-11.474-11.916 0-6.592 5.127-11.915 11.474-11.915S55.474 18.907 55.474 25.5c0 6.592-5.127 11.916-11.474 11.916z" fill="#0078D7"/><path d="M52.544 25.056l-7.384-.317c-.122-.127-.245-.317-.367-.38l-.305-7.67c0-.19-.183-.38-.427-.38h-.122c-.183 0-.366.19-.427.38l-.306 7.607c-.366.253-.61.697-.61 1.204 0 .76.61 1.394 1.343 1.394.427 0 .854-.253 1.099-.57l7.446-.317c.183 0 .366-.19.366-.444v-.127c.122-.19-.061-.38-.306-.38z" fill="#0078D7"/></svg>
